img/logo-symbol-20.svg

<svg fill="none" height="55" viewBox="0 0 48 55" width="48" xmlns="http://www.w3.org/2000/svg" xmlns:xlink="http://www.w3.org/1999/xlink"><clipPath id="a"><path d="m0 0h47.6631v55h-47.6631z"/></clipPath><g clip-path="url(#a)"><path d="m23.806 0 23.8059 13.7444v27.4888l-23.8059 13.7441-23.806-13.7441v-27.4888z" fill="#fff"/><g fill="#000"><path d="m39.957 41.2402 3.8532-2.2277v-16.4744l-3.8532 2.2277z"/><path d="m37.107 42.8885-3.8004 2.1972v-16.4744l3.8004-2.1972z"/><path d="m26.6562 48.9315v-16.4745l3.8004-2.1972v16.4744z"/><path clip-rule="evenodd" d="m23.806 0 23.8059 13.7444v27.4888l-23.8059 13.7441-23.806-13.7441v-27.4888zm-.0001 1.10845 22.8557 13.19575h-11.0019l-11.8538 13.1958-22.855799-13.1958zm-22.855804 16.46835.000005 23.119 22.855799 13.1958 22.8557-13.1958v-23.119l-22.8557 13.1958z" fill-rule="evenodd"/></g></g></svg>

<svg width="48" height="55" viewBox="0 0 48 55" fill="none" xmlns="http://www.w3.org/2000/svg">
<g clip-path="url(#clip0_3422_3213)">
<path d="M23.806 0L47.6119 13.7444V41.2332L23.806 54.9773L0 41.2332V13.7444L23.806 0Z" fill="white"/>
<path d="M39.957 41.2402L43.8102 39.0125V22.5381L39.957 24.7658V41.2402Z" fill="black"/>
<path d="M37.107 42.8885L33.3066 45.0857V28.6113L37.107 26.4141V42.8885Z" fill="black"/>
<path d="M26.6562 48.9315V32.457L30.4566 30.2598V46.7342L26.6562 48.9315Z" fill="black"/>
<path fill-rule="evenodd" clip-rule="evenodd" d="M23.806 0L47.6119 13.7444V41.2332L23.806 54.9773L0 41.2332V13.7444L23.806 0ZM23.8059 1.10845L46.6616 14.3042H35.6597L23.8059 27.5L0.950101 14.3042L23.8059 1.10845ZM0.950096 17.5768L0.950101 40.6958L23.8059 53.8916L46.6616 40.6958V17.5768L23.8059 30.7726L0.950096 17.5768Z" fill="black"/>
</g>
<defs>
<clipPath id="clip0_3422_3213">
<rect width="47.6631" height="55" fill="white"/>
</clipPath>
</defs>
</svg>
